anatomy-assets/svg/lower_bones_coccygis.svg

<?xml version="1.0" encoding="UTF-8" standalone="no"?>
<!-- Generator: Adobe Illustrator 12.0.0, SVG Export Plug-In . SVG Version: 6.00 Build 51448)  -->

<svg
   version="1.0"
   id="Layer_1"
   width="157.45488"
   height="446.52948"
   viewBox="0 0 157.45488 446.52947"
   overflow="visible"
   enable-background="new 0 0 435.687 841.89"
   xml:space="preserve"
   sodipodi:version="0.32"
   inkscape:version="1.4.2 (f4327f4, 2025-05-13)"
   sodipodi:docname="lower_bones_coccygis.svg"
   inkscape:output_extension="org.inkscape.output.svg.inkscape"
   style="display:inline;overflow:visible"
   xmlns:inkscape="http://www.inkscape.org/namespaces/inkscape"
   xmlns:sodipodi="http://sodipodi.sourceforge.net/DTD/sodipodi-0.dtd"
   xmlns="http://www.w3.org/2000/svg"
   xmlns:svg="http://www.w3.org/2000/svg"
   xmlns:rdf="http://www.w3.org/1999/02/22-rdf-syntax-ns#"
   xmlns:cc="http://creativecommons.org/ns#"
   xmlns:dc="http://purl.org/dc/elements/1.1/"><metadata
   id="metadata3098"><rdf:RDF><cc:Work
       rdf:about=""><dc:format>image/svg+xml</dc:format><dc:type
         rdf:resource="http://purl.org/dc/dcmitype/StillImage" /></cc:Work><cc:Work
       rdf:about=""><dc:format>image/svg+xml</dc:format><dc:type
         rdf:resource="http://purl.org/dc/dcmitype/StillImage" /></cc:Work></rdf:RDF></metadata><defs
   id="defs3096"><inkscape:perspective
   sodipodi:type="inkscape:persp3d"
   inkscape:vp_x="0 : 25.584482 : 1"
   inkscape:vp_y="0 : 1000 : 0"
   inkscape:vp_z="435.68702 : 25.584482 : 1"
   inkscape:persp3d-origin="217.84352 : -114.73053 : 1"
   id="perspective3100" />
		
		
		
		
	
		
		
	
		
		
		
		
		
	
	
	

		
		
		
	
			
			
		
				
				
				
				
				
			
	
	
</defs>
<sodipodi:namedview
   inkscape:window-height="1360"
   inkscape:window-width="1278"
   inkscape:pageshadow="2"
   inkscape:pageopacity="0.0"
   guidetolerance="10.0"
   gridtolerance="10.0"
   objecttolerance="10.0"
   borderopacity="1.0"
   bordercolor="#666666"
   pagecolor="#ffffff"
   id="base"
   showgrid="false"
   inkscape:zoom="1.9049022"
   inkscape:cx="96.067924"
   inkscape:cy="165.88778"
   inkscape:window-x="1913"
   inkscape:window-y="0"
   inkscape:current-layer="layer3"
   showguides="true"
   inkscape:guide-bbox="true"
   inkscape:showpageshadow="2"
   inkscape:pagecheckerboard="0"
   inkscape:deskcolor="#d1d1d1"
   inkscape:window-maximized="0" />
<g
   inkscape:groupmode="layer"
   id="layer3"
   inkscape:label="Skeleton"
   style="display:inline"
   transform="translate(-121.94541,-322.46856)"><g
     id="Coccyx"
     inkscape:label="Coccyx">
		<path
   style="fill:#f3d48c;stroke:#967348;stroke-width:0.3218"
   id="path579"
   d="m 198.249,385.062 c 0.035,0.459 -0.397,0.825 -0.323,1.323 0.032,0.217 0.688,1.32 0.961,1.183 2.043,-1.035 0.172,1.63 0.229,1.858 0.222,0.887 0.946,0.827 1.733,0.731 0.019,0.532 -0.406,0.536 -0.52,0.916 -0.411,1.379 0.876,3.818 2.551,3.194 0.629,-0.234 1.158,-1.245 1.312,-1.851 0.207,-0.806 -0.512,-1.441 -0.215,-1.991 -0.056,0.104 0.612,-0.112 0.65,-0.135 0.312,-0.188 0.523,-0.717 0.566,-1.059 0.134,-1.096 -1.901,-0.889 -1.21,-1.748 0.42,-0.523 1.28,-0.112 1.647,-0.869 0.365,-0.754 -0.328,-1.633 -1.046,-1.852 0.82,-1.04 2.236,0.639 3.091,-0.799 0.683,-1.148 1.058,-2.039 0.548,-3.191 -1.47,0.095 -3.046,0.718 -4.531,1.045 -1.61,0.356 -2.947,0.027 -4.566,0.004 -0.789,-0.011 -1.525,-0.004 -2.28,-0.134 -1.021,-0.175 -2.207,-0.839 -2.452,0.469 -0.143,0.77 0.594,2.614 1.272,3.027 0.721,0.435 1.807,-0.179 2.583,-0.121 z" />
		<path
   style="fill:#dcc06d"
   id="path581"
   d="m 201.137,392.282 c 1.157,-0.221 0.59,1.354 1.612,0.673 0.689,-0.458 0.329,-1.046 -0.392,-1.099 0.375,-0.704 -0.316,-0.979 -0.801,-1.16 0.546,0.193 1.813,0.3 1.843,-0.54 -0.604,0.044 -1.105,-0.135 -1.685,-0.154 1.101,-0.159 1.25,-0.334 1.809,-0.972 -0.047,0.02 -0.085,0.01 -0.113,-0.028 0.085,0.04 -0.07,-0.254 -0.013,-0.181 -0.438,-0.182 -0.418,-0.042 -0.537,-0.546 -1.117,0.089 -0.854,0.339 -1.194,1.29 0.047,-1.018 -0.455,-1.214 -1.179,-1.742 0.277,-0.319 1.296,-0.264 1.84,-0.393 0,-0.425 -0.033,-0.597 -0.472,-0.784 0.887,-0.206 2.274,-0.467 1.672,-1.72 -1.465,-0.081 -3.042,0.308 -4.358,-0.295 1.154,0.488 2.796,-0.179 3.967,-0.426 -0.1,-0.281 -0.047,-0.568 -0.132,-0.868 0.108,0.266 0.398,0.557 0.516,0.751 0.056,-0.125 0.145,-0.238 0.194,-0.335 1.005,0.871 1.643,-1.068 1.713,-1.757 0.279,0.809 -0.036,1.987 1.233,1.469 0.395,-0.161 1.342,-1.335 1.393,-1.766 -0.1,0.854 -0.147,1.728 -0.855,2.268 -0.826,0.628 -1.574,-0.284 -2.411,0.244 -0.96,0.605 -0.42,0.592 -0.023,1.194 1.123,1.713 -2.314,1.232 -1.324,2.963 0.482,0.018 1.247,0.232 1.331,0.836 0.096,0.703 -0.785,0.718 -1.058,1.099 -0.324,0.451 0.021,1.007 0.005,1.543 -0.02,0.625 -0.393,1.817 -1.082,1.997 -0.806,0.211 -1.793,-0.955 -1.365,-1.698" />
		<path
   style="fill:#ccb25c"
   id="path583"
   d="m 196.31,382.09 c 1.197,-0.57 1.667,0.995 2.084,1.733 -0.102,-0.57 -0.455,-1.065 -0.596,-1.575 0.672,0.129 1.161,-0.006 1.822,-0.023 -0.982,-0.004 -1.966,-0.317 -2.909,-0.269" />
		<path
   style="fill:#ccb25c"
   id="path585"
   d="m 199.93,385.174 c 1.161,-0.153 2.485,0.367 3.6,0.185 -0.009,0.17 0.079,0.438 0.049,0.607 0.751,-0.343 0.516,-0.848 -0.03,-1.058 -0.749,-0.29 -2.565,0.408 -3.35,0.536" />
		<path
   style="fill:#ccb25c"
   id="path587"
   d="m 203.282,388.125 c -0.68,-0.333 -1.728,-0.127 -2.297,0.134 0.849,0.68 2.105,-0.157 3.085,0.385 -0.073,-0.441 -0.646,-0.569 -1.056,-0.788" />
		<path
   style="fill:#ccb25c"
   id="path589"
   d="m 203.148,390.538 c -0.691,-0.091 -1.284,0.204 -1.964,0.128 0.498,0.327 1.13,0.571 1.669,0.797 0.009,-0.415 -0.081,-0.772 -0.106,-1.193" />
	</g></g></svg>

<?xml version="1.0" encoding="UTF-8" standalone="no"?>
<!-- Generator: Adobe Illustrator 12.0.0, SVG Export Plug-In . SVG Version: 6.00 Build 51448)  -->

<svg
   version="1.0"
   id="Layer_1"
   width="435.68701"
   height="841.89001"
   viewBox="0 0 435.687 841.89"
   overflow="visible"
   enable-background="new 0 0 435.687 841.89"
   xml:space="preserve"
   sodipodi:version="0.32"
   inkscape:version="1.4.2 (f4327f4, 2025-05-13)"
   sodipodi:docname="lower_bones_coccygis.svg"
   inkscape:output_extension="org.inkscape.output.svg.inkscape"
   style="overflow: visible; display: inline;"
   xmlns:inkscape="http://www.inkscape.org/namespaces/inkscape"
   xmlns:sodipodi="http://sodipodi.sourceforge.net/DTD/sodipodi-0.dtd"
   xmlns="http://www.w3.org/2000/svg"
   xmlns:svg="http://www.w3.org/2000/svg"
   xmlns:rdf="http://www.w3.org/1999/02/22-rdf-syntax-ns#"
   xmlns:cc="http://creativecommons.org/ns#"
   xmlns:dc="http://purl.org/dc/elements/1.1/"><metadata
   id="metadata3098"><rdf:RDF><cc:Work
       rdf:about=""><dc:format>image/svg+xml</dc:format><dc:type
         rdf:resource="http://purl.org/dc/dcmitype/StillImage" /></cc:Work><cc:Work
       rdf:about=""><dc:format>image/svg+xml</dc:format><dc:type
         rdf:resource="http://purl.org/dc/dcmitype/StillImage" /></cc:Work></rdf:RDF></metadata><defs
   id="defs3096"><inkscape:perspective
   sodipodi:type="inkscape:persp3d"
   inkscape:vp_x="0 : 420.94501 : 1"
   inkscape:vp_y="0 : 1000 : 0"
   inkscape:vp_z="435.68701 : 420.94501 : 1"
   inkscape:persp3d-origin="217.84351 : 280.63 : 1"
   id="perspective3100" />
		
		
		
		
	
		
		
	
		
		
		
		
		
	
	
	

		
		
		
	
			
			
		
				
				
				
				
				
			
	
	
</defs>
<sodipodi:namedview
   inkscape:window-height="1369"
   inkscape:window-width="2560"
   inkscape:pageshadow="2"
   inkscape:pageopacity="0.0"
   guidetolerance="10.0"
   gridtolerance="10.0"
   objecttolerance="10.0"
   borderopacity="1.0"
   bordercolor="#666666"
   pagecolor="#ffffff"
   id="base"
   showgrid="false"
   inkscape:zoom="1.9049022"
   inkscape:cx="217.85895"
   inkscape:cy="385.05914"
   inkscape:window-x="-8"
   inkscape:window-y="-8"
   inkscape:current-layer="layer3"
   showguides="true"
   inkscape:guide-bbox="true"
   inkscape:showpageshadow="2"
   inkscape:pagecheckerboard="0"
   inkscape:deskcolor="#d1d1d1"
   inkscape:window-maximized="1" />
<g
   inkscape:groupmode="layer"
   id="layer3"
   inkscape:label="Skeleton"
   style="display: inline;"><g
     id="Coccyx"
     inkscape:label="Coccyx">
		<path
   style="fill: rgb(243, 212, 140); stroke: rgb(150, 115, 72); stroke-width: 0.3218;"
   id="path579"
   d="M 198.249,385.062 C 198.284,385.521 197.852,385.887 197.926,386.385 C 197.958,386.602 198.614,387.705 198.887,387.568 C 200.93,386.533 199.059,389.198 199.116,389.426 C 199.338,390.313 200.062,390.253 200.849,390.157 C 200.868,390.689 200.443,390.693 200.329,391.073 C 199.918,392.452 201.205,394.891 202.88,394.267 C 203.509,394.033 204.038,393.022 204.192,392.416 C 204.399,391.61 203.68,390.975 203.977,390.425 C 203.921,390.529 204.589,390.313 204.627,390.29 C 204.939,390.102 205.15,389.573 205.193,389.231 C 205.327,388.135 203.292,388.342 203.983,387.483 C 204.403,386.96 205.263,387.371 205.63,386.614 C 205.995,385.86 205.302,384.981 204.584,384.762 C 205.404,383.722 206.82,385.401 207.675,383.963 C 208.358,382.815 208.733,381.924 208.223,380.772 C 206.753,380.867 205.177,381.49 203.692,381.817 C 202.082,382.173 200.745,381.844 199.126,381.821 C 198.337,381.81 197.601,381.817 196.846,381.687 C 195.825,381.512 194.639,380.848 194.394,382.156 C 194.251,382.926 194.988,384.77 195.666,385.183 C 196.387,385.618 197.473,385.004 198.249,385.062 z" />
		<path
   style="fill: rgb(220, 192, 109);"
   id="path581"
   d="M 201.137,392.282 C 202.294,392.061 201.727,393.636 202.749,392.955 C 203.438,392.497 203.078,391.909 202.357,391.856 C 202.732,391.152 202.041,390.877 201.556,390.696 C 202.102,390.889 203.369,390.996 203.399,390.156 C 202.795,390.2 202.294,390.021 201.714,390.002 C 202.815,389.843 202.964,389.668 203.523,389.03 C 203.476,389.05 203.438,389.04 203.41,389.002 C 203.495,389.042 203.34,388.748 203.397,388.821 C 202.959,388.639 202.979,388.779 202.86,388.275 C 201.743,388.364 202.006,388.614 201.666,389.565 C 201.713,388.547 201.211,388.351 200.487,387.823 C 200.764,387.504 201.783,387.559 202.327,387.43 C 202.327,387.005 202.294,386.833 201.855,386.646 C 202.742,386.44 204.129,386.179 203.527,384.926 C 202.062,384.845 200.485,385.234 199.169,384.631 C 200.323,385.119 201.965,384.452 203.136,384.205 C 203.036,383.924 203.089,383.637 203.004,383.337 C 203.112,383.603 203.402,383.894 203.52,384.088 C 203.576,383.963 203.665,383.85 203.714,383.753 C 204.719,384.624 205.357,382.685 205.427,381.996 C 205.706,382.805 205.391,383.983 206.66,383.465 C 207.055,383.304 208.002,382.13 208.053,381.699 C 207.953,382.553 207.906,383.427 207.198,383.967 C 206.372,384.595 205.624,383.683 204.787,384.211 C 203.827,384.816 204.367,384.803 204.764,385.405 C 205.887,387.118 202.45,386.637 203.44,388.368 C 203.922,388.386 204.687,388.6 204.771,389.204 C 204.867,389.907 203.986,389.922 203.713,390.303 C 203.389,390.754 203.734,391.31 203.718,391.846 C 203.698,392.471 203.325,393.663 202.636,393.843 C 201.83,394.054 200.843,392.888 201.271,392.145" />
		<path
   style="fill: rgb(204, 178, 92);"
   id="path583"
   d="M 196.31,382.09 C 197.507,381.52 197.977,383.085 198.394,383.823 C 198.292,383.253 197.939,382.758 197.798,382.248 C 198.47,382.377 198.959,382.242 199.62,382.225 C 198.638,382.221 197.654,381.908 196.711,381.956" />
		<path
   style="fill: rgb(204, 178, 92);"
   id="path585"
   d="M 199.93,385.174 C 201.091,385.021 202.415,385.541 203.53,385.359 C 203.521,385.529 203.609,385.797 203.579,385.966 C 204.33,385.623 204.095,385.118 203.549,384.908 C 202.8,384.618 200.984,385.316 200.199,385.444" />
		<path
   style="fill: rgb(204, 178, 92);"
   id="path587"
   d="M 203.282,388.125 C 202.602,387.792 201.554,387.998 200.985,388.259 C 201.834,388.939 203.09,388.102 204.07,388.644 C 203.997,388.203 203.424,388.075 203.014,387.856" />
		<path
   style="fill: rgb(204, 178, 92);"
   id="path589"
   d="M 203.148,390.538 C 202.457,390.447 201.864,390.742 201.184,390.666 C 201.682,390.993 202.314,391.237 202.853,391.463 C 202.862,391.048 202.772,390.691 202.747,390.27" />
	</g></g></svg>
